src/2-landmarks/medical-checkup--examine.svg

<svg width="1300" height="1000" fill="none" xmlns="http://www.w3.org/2000/svg"><path fill-rule="evenodd" clip-rule="evenodd" d="M745.772 338c1.842-.004 8.879-.506 12.648-1.914 4.509-1.684 8.751-4.937 11.676-8.613 2.11-2.652 4.272-8.036 5.312-10.829a24.114 24.114 0 0 0 1.013-3.617l4.864-23.833c.287-1.783.486-3.939.486-5.742-.001-4.783-.908-9.015-2.918-13.398-2.01-4.383-4.588-8.232-8.271-11.484-3.682-3.252-8.522-6.048-13.263-7.625-4.737-1.466-6.585-1.778-11.547-1.945-4.625.038-7.297.483-11.676 1.945-5.64 1.883-8.78 3.629-13.135 7.625-4.086 3.749-6.038 6.446-8.271 11.484-2.173 4.905-2.899 8.047-2.918 13.398-.009 2.25.486 5.742.486 5.742l4.093 24.154c.19 1.122.44 2.231.802 3.31.883 2.63 2.832 7.831 5.321 10.853 3.679 4.466 6.714 6.496 12.162 8.575 4.835 1.845 13.136 1.914 13.136 1.914Zm0-7c1.484-.004 7.153-.427 10.189-1.613 3.631-1.419 7.049-4.16 9.405-7.258 1.649-2.168 3.338-6.503 4.202-8.91.408-1.135.706-2.302.937-3.486l3.875-19.862c.23-1.502.391-3.319.391-4.839-.001-4.03-.732-7.596-2.351-11.29-1.619-3.694-3.695-6.937-6.662-9.677-2.967-2.741-6.865-5.097-10.684-6.426-3.816-1.236-5.305-1.498-9.302-1.639-3.726.032-5.878.407-9.406 1.639-4.543 1.587-7.072 3.058-10.581 6.426-3.291 3.159-4.864 5.431-6.662 9.677-1.751 4.134-2.336 6.781-2.351 11.29-.007 1.896.391 4.839.391 4.839l3.265 20.155c.175 1.079.404 2.145.742 3.184.738 2.271 2.275 6.477 4.223 8.951 2.964 3.764 5.409 5.474 9.797 7.226 3.895 1.555 10.582 1.613 10.582 1.613Zm80.224 45c17.528 36.035 23.43 91.5 23.43 93.162 0 37.391-2.652 87.536-3.432 101.477L855.76 565c9.566-5.523 21.798-2.245 27.321 7.32 5.523 9.566 2.245 21.798-7.321 27.321l-55.111 31.819 4.347 86.54-3 156.5 16.203 7.658A19.736 19.736 0 0 1 849.5 900H1300v100H0V900h353V699c-11.046 0-20-8.954-20-20s8.954-20 20-20h317.566L681.5 492.5l-79 43-41.062 2.074a11.915 11.915 0 0 1-11.631-7.397c-3.613-8.852 1.356-18.867 10.591-21.345L584 502.5l56.594-38.096s9.838-53.082 25.279-89.186c15.902-27.681 45.969-33.623 82.944-33.197 38.119.434 62.13 4.804 77.179 33.979ZM360 699v201h281.496v-1.093a20.001 20.001 0 0 1 12.402-18.501L669.496 874l-2.5-156 1.587-19H360Zm482.43-226.53-3.283 102.121-20.401 11.779-3.991-65.079-5.245-52.201-6.35-49.135a2.23 2.23 0 0 0-4.433.493L805 488l3 30 2.5 55.5.836 17.148-59.063 34.1-2.217-26.928a3.922 3.922 0 0 0-7.821.038l-2.479 34.117L729.32 638c-7.703 4.448-11.328 13.247-9.563 21.5h-2.293c-1.435-.327-2.93-.5-4.464-.5h-35.962l6.462-85.145 3-55.855 3-30.5 5.83-67.517a1.807 1.807 0 0 0-3.584-.455L681 483.5l-81.218 43.992-36.814 3.416a7.639 7.639 0 0 1-2.622-15.003L587 509l61-40.5s7.648-51.646 22.22-86.985c15.005-27.095 43.378-31.912 78.27-31.495 35.971.425 57.759 1.937 71.96 30.495 16.54 35.271 21.98 91.955 21.98 91.955ZM745.996 611l.756 16.936-1.464.845.708-17.781Zm-26.734 49h.608l.058.232c-.22-.081-.442-.158-.666-.232Zm16.097 14.925a20.118 20.118 0 0 1-2.968-.843c.398 1.574.609 3.221.609 4.918 0 11.046-8.954 20-20 20h-36.985L674 717.009l2.5 161.008-21.216 9.112a10 10 0 0 0-6.052 9.021l-.064 3.85H728l-2.09-22.008a5.906 5.906 0 0 0 5.933-6.048l-3.098-127.822 6.614-69.197Zm13.961-2.284a19.923 19.923 0 0 1-8.252 2.608L736.496 746l1.439 127.592a9.97 9.97 0 0 1-4.439 8.408l1.5 18h22.5l1.5-18a10 10 0 0 1-4-8V746l-4.36-74.119-1.316.76Zm12.69 71.496-4.931-75.975 57.215-33.034 3.546 81.894-3.16 161.02 20.179 9.77A13.546 13.546 0 0 1 842.5 900h-77.89l1.99-21.978a4.318 4.318 0 0 1-4.348-4.31l-.242-129.575Zm-41.868-54.273a13.051 13.051 0 0 0 3.515-3.418l-3.515 3.418Zm3.734-3.74A12.939 12.939 0 0 0 726 679c0-7.18-5.82-13-13-13H353c-7.18 0-13 5.82-13 13s5.82 13 13 13h360c2.63 0 5.078-.781 7.124-2.124l3.752-3.752Zm8.945-42.062c-6.218 3.59-8.348 11.541-4.759 17.759 3.59 6.218 11.541 8.348 17.759 4.758l126.44-73c6.217-3.59 8.348-11.54 4.758-17.758-3.59-6.218-11.541-8.348-17.758-4.759l-126.44 73Z" fill="#000"/></svg>

<svg width="1300" height="1000" viewBox="0 0 1300 1000" fill="none" xmlns="http://www.w3.org/2000/svg">
<path fill-rule="evenodd" clip-rule="evenodd" d="M745.772 338C747.614 337.996 754.651 337.494 758.42 336.086C762.929 334.402 767.171 331.149 770.096 327.473C772.206 324.821 774.368 319.437 775.408 316.644C775.846 315.468 776.171 314.256 776.421 313.027L781.285 289.194C781.572 287.411 781.771 285.255 781.771 283.452C781.77 278.669 780.863 274.437 778.853 270.054C776.843 265.671 774.265 261.822 770.582 258.57C766.9 255.318 762.06 252.522 757.319 250.945C752.582 249.479 750.734 249.167 745.772 249C741.147 249.038 738.475 249.483 734.096 250.945C728.456 252.828 725.316 254.574 720.961 258.57C716.875 262.319 714.923 265.016 712.69 270.054C710.517 274.959 709.791 278.101 709.772 283.452C709.763 285.702 710.258 289.194 710.258 289.194L714.351 313.348C714.541 314.47 714.791 315.579 715.153 316.658C716.036 319.288 717.985 324.489 720.474 327.511C724.153 331.977 727.188 334.007 732.636 336.086C737.471 337.931 745.772 338 745.772 338ZM745.772 331C747.256 330.996 752.925 330.573 755.961 329.387C759.592 327.968 763.01 325.227 765.366 322.129C767.015 319.961 768.704 315.626 769.568 313.219C769.976 312.084 770.274 310.917 770.505 309.733L774.38 289.871C774.61 288.369 774.771 286.552 774.771 285.032C774.77 281.002 774.039 277.436 772.42 273.742C770.801 270.048 768.725 266.805 765.758 264.065C762.791 261.324 758.893 258.968 755.074 257.639C751.258 256.403 749.769 256.141 745.772 256C742.046 256.032 739.894 256.407 736.366 257.639C731.823 259.226 729.294 260.697 725.785 264.065C722.494 267.224 720.921 269.496 719.123 273.742C717.372 277.876 716.787 280.523 716.772 285.032C716.765 286.928 717.163 289.871 717.163 289.871L720.428 310.026C720.603 311.105 720.832 312.171 721.17 313.21C721.908 315.481 723.445 319.687 725.393 322.161C728.357 325.925 730.802 327.635 735.19 329.387C739.085 330.942 745.772 331 745.772 331Z" fill="black"/>
<path fill-rule="evenodd" clip-rule="evenodd" d="M825.996 376C843.524 412.035 849.426 467.5 849.426 469.162C849.426 506.553 846.774 556.698 845.994 570.639L855.76 565C865.326 559.477 877.558 562.755 883.081 572.32C888.604 581.886 885.326 594.118 875.76 599.641L820.649 631.46L824.996 718L821.996 874.5L838.199 882.158C845.099 885.42 849.5 892.368 849.5 900H1300V1000H0V900H353V699C341.954 699 333 690.046 333 679C333 667.954 341.954 659 353 659H670.566L681.5 492.5L602.5 535.5L561.438 537.574C556.384 537.829 551.72 534.863 549.807 530.177C546.194 521.325 551.163 511.31 560.398 508.832L584 502.5L640.594 464.404C640.594 464.404 650.432 411.322 665.873 375.218C681.775 347.537 711.842 341.595 748.817 342.021C786.936 342.455 810.947 346.825 825.996 376ZM360 699V900H641.496V898.907C641.496 890.796 646.395 883.488 653.898 880.406L669.496 874L666.996 718L668.583 699H360ZM842.43 472.47L839.147 574.591L818.746 586.37L814.755 521.291L809.51 469.09L803.16 419.955C803.017 418.847 802.076 418.016 800.958 418.011C799.641 418.005 798.605 419.136 798.727 420.448L805 488L808 518L810.5 573.5L811.336 590.648L752.273 624.748L750.056 597.82C749.889 595.786 748.189 594.22 746.147 594.22C744.091 594.22 742.384 595.807 742.235 597.858L739.756 631.975L729.32 638C721.617 642.448 717.992 651.247 719.757 659.5H717.464C716.029 659.173 714.534 659 713 659H677.038L683.5 573.855L686.5 518L689.5 487.5L695.33 419.983C695.421 418.927 694.589 418.02 693.529 418.02C692.646 418.02 691.893 418.658 691.746 419.528L681 483.5L599.782 527.492L562.968 530.908C558.701 531.304 554.943 528.115 554.641 523.84C554.381 520.166 556.78 516.829 560.346 515.905L587 509L648 468.5C648 468.5 655.648 416.854 670.22 381.515C685.225 354.42 713.598 349.603 748.49 350.02C784.461 350.445 806.249 351.957 820.45 380.515C836.99 415.786 842.43 472.47 842.43 472.47ZM745.996 611L746.752 627.936L745.288 628.781L745.996 611ZM719.262 660H719.87C719.889 660.078 719.908 660.155 719.928 660.232C719.708 660.151 719.486 660.074 719.262 660ZM735.359 674.925C734.35 674.72 733.357 674.439 732.391 674.082C732.789 675.656 733 677.303 733 679C733 690.046 724.046 699 713 699H676.015L674 717.009L676.5 878.017L655.284 887.129C651.667 888.683 649.298 892.214 649.232 896.15L649.168 900H728L725.91 877.992C729.239 878.008 731.923 875.272 731.843 871.944L728.745 744.122L735.359 674.925ZM749.32 672.641C746.705 674.151 743.891 675.003 741.068 675.249L736.496 746L737.935 873.592C737.973 876.965 736.303 880.129 733.496 882L734.996 900H757.496L758.996 882C756.478 880.111 754.996 877.148 754.996 874V746L750.636 671.881L749.32 672.641ZM762.01 744.137L757.079 668.162L814.294 635.128L817.84 717.022L814.68 878.042L834.859 887.812C839.531 890.075 842.499 894.809 842.5 900H764.61L766.6 878.022C764.207 878.039 762.256 876.105 762.252 873.712L762.01 744.137ZM720.142 689.864C721.519 688.957 722.713 687.796 723.657 686.446L720.142 689.864ZM723.876 686.124C725.219 684.078 726 681.63 726 679C726 671.82 720.18 666 713 666H353C345.82 666 340 671.82 340 679C340 686.18 345.82 692 353 692H713C715.63 692 718.078 691.219 720.124 689.876L723.876 686.124ZM732.821 644.062C726.603 647.652 724.473 655.603 728.062 661.821C731.652 668.039 739.603 670.169 745.821 666.579L872.261 593.579C878.478 589.989 880.609 582.039 877.019 575.821C873.429 569.603 865.478 567.473 859.261 571.062L732.821 644.062Z" fill="black"/>
</svg>
